X:1
T:Title
%%score 1 { 2 | 3 }
L:1/8
Q:1/4=105
M:3/4
K:Eb
V:1 treble nm="Grand Piano, Soprano"
V:2 bass nm="Choir Pad, Still Undecided? F. J. Crosby"
V:3 bass 
V:1
 [EB]4 E>[EF] | [EG] [EG]3 z2 | [DF]2 [DG]3 [DF] | E6 | [EG]2 [EG]3 [EA] | [Ec] [EB]3 z2 | %6
w: By~Robert~Lowry * *||||||
 [EB]2 E2 [DF]2 | [EG]6 | [EB]2 [FA]2 [EG]2 | [EG]>[DF] [DF]4 | [FA]2 [EG]2 [DF]2 | %11
w: |||||
 [EG]>[EB] [EB]4 | [EG]2 [DF]2 E2 | [EA]>[EA] [Ec]4 | [EB]2 [EG]2 [DF]2 | E6- | E2 z2 z2 |] %17
w: ||||||
V:2
 G,4 G,>A, | B, B,3 z2 | A,2 B,3 A, | G,6 | B,2 B,3 C | A, G,3 z2 | G,2 G,2 B,2 | B,6 | %8
 G,2 B,2 B,2 | B,>B, B,4 | B,2 B,2 B,2 | B,>G, G,4 | B,2 A,2 G,2 | C>C A,4 | G,2 B,2 A,2 | G,6- | %16
 G,2 z2 z2 |] %17
V:3
 E,4 E,>E, | E, E,3 z2 | B,,2 B,,3 B,, | E,6 | E,2 E,3 E, | E, E,3 z2 | E,2 C,2 B,,2 | E,6 | %8
 E,2 D,2 E,2 | B,,>B,, B,,4 | B,,2 B,,2 B,,2 | E,>E, E,4 | E,2 B,,2 C,2 | A,,>A,, A,,4 | %14
 B,,2 B,,2 B,,2 | E,6- | E,2 z2 z2 |] %17

